frontend/public/assets/material-icons/folder-console.svg

<svg xmlns="http://www.w3.org/2000/svg" viewBox="0 0 32 32"><path d="M13.84376,7.53645l-1.28749-1.0729A2,2,0,0,0,11.27591,6H4A2,2,0,0,0,2,8V24a2,2,0,0,0,2,2H28a2,2,0,0,0,2-2V10a2,2,0,0,0-2-2H15.12412A2,2,0,0,1,13.84376,7.53645Z" style="fill:#8bc34a"/><path d="M26,14H16a4.53263,4.53263,0,0,0-4.49771,3.97105l-1.48305,9.2756A2.44981,2.44981,0,0,0,12.45018,30h0A2.44983,2.44983,0,0,0,14.41,29.02007L17,26h8l2.59,3.02007A2.44983,2.44983,0,0,0,29.54982,30h0a2.44981,2.44981,0,0,0,2.43094-2.75335l-1.483-9.2756A4.53263,4.53263,0,0,0,26,14Zm-1,2a1,1,0,1,1-1,1A1,1,0,0,1,25,16Zm-5,4H18v2H16V20H14V18h2V16h2v2h2Zm3,0a1,1,0,1,1,1-1A1,1,0,0,1,23,20Zm2,2a1,1,0,1,1,1-1A1,1,0,0,1,25,22Zm2-2a1,1,0,1,1,1-1A1,1,0,0,1,27,20Z" style="fill:#dcedc8"/></svg>

<svg xmlns="http://www.w3.org/2000/svg" viewBox="0 0 32 32"><path fill="#8bc34a" d="m13.844 7.536-1.288-1.072A2 2 0 0 0 11.276 6H4a2 2 0 0 0-2 2v16a2 2 0 0 0 2 2h24a2 2 0 0 0 2-2V10a2 2 0 0 0-2-2H15.124a2 2 0 0 1-1.28-.464"/><path fill="#dcedc8" d="M26 14H16a4.533 4.533 0 0 0-4.498 3.971l-1.483 9.276A2.45 2.45 0 0 0 12.45 30a2.45 2.45 0 0 0 1.96-.98L17 26h8l2.59 3.02a2.45 2.45 0 0 0 1.96.98 2.45 2.45 0 0 0 2.43-2.753l-1.482-9.276A4.533 4.533 0 0 0 26 14m-1 2a1 1 0 1 1-1 1 1 1 0 0 1 1-1m-5 4h-2v2h-2v-2h-2v-2h2v-2h2v2h2Zm3 0a1 1 0 1 1 1-1 1 1 0 0 1-1 1m2 2a1 1 0 1 1 1-1 1 1 0 0 1-1 1m2-2a1 1 0 1 1 1-1 1 1 0 0 1-1 1"/></svg>
